!!!!SEGMENT: pl-sa--552-a-ix-32--039_anonim--batalia-pod-lipskiem.krn
!!!cenid: 18xx:550
!!!COM: Anonim
!!!COM-rismID: pe30004985
!!!CDT:
!!!CNT:
!!!OTL: Batalia pod Lipskiem
!!!PDT:
!!!AGN: Secular
!!!SMS-siglum: PL-SA
!!!SMS-shelfmark: 552/A IX 32
!!!SMS-shelfwork: 039 W
!!!SMS-variant:
!!!SMS-altvar:
!!!NIFC-rismSourceID: 1001069583
!!!NIFC-rismChildID: 1001069583
!!!NIFC-islandoraID: none
!!!URL-pdf-islandora:
!!!URL-scan: https://bc.bdsandomierz.pl/dlibra/publication/1308/edition/1276/content @EN{Scan in the Sandomierz Diocese Digital Library} @PL{Skany w portalu Cyfrowa Biblioteka Diecezjalna w Sandomierzu}
!!!IIIF:
!!!ONB-nifc: Str. 21, s. 4-6
!!!AIN: 1 piano
!!!key:
**kern	**kern
*part1	*part1
*staff2	*staff1
*Ipiano	*Iempty
*I"Piano	*
*I'P-no	*
*clefF4	*clefG2
*k[b-]	*k[b-]
*F:	*F:
*M3/4	*M3/4
*>[A,A,B,B,]	*>[A,A,B,B,]
=1	=1
*>A	*>A
!	!LO:TX:a:i:t=Batalia pod lipskiem
!	!LO:TX:b:t=Otrąbienie
2.ryy	8f/
!	!LO:TUP:b
.	24f/LL
.	24f/
.	24f/JJ
.	4f/
.	8r
.	8f/
=2	=2
2.ryy	8a\
!	!LO:TUP:a:problem=klamra łukowa
.	24a\LL
.	24a\
.	24a\JJ
.	4cc\
.	8r
.	8a/
=3	=3
!	!LO:TX:a:i:t=Potyczka
!	!LO:TX:a:t=c
16F\LL	8ddL 8cc\
16c\	.
!	!LO:TUP:a:problem=klamra łukowa, kropka zamiast numeru
16A\	24cc\L
.	24dd\
16c\JJ	.
.	24cc\JJ
*rep	*
16F\LL	8ff\L
16c\	.
!	!LO:TUP:a:problem=klamra łukowa, kropka zamiast numeru
16A\	24cc\L
.	24dd\
16c\JJ	.
.	24ee\JJ
*Xrep	*
*rep	*
16F\LL	8ff\L
16c\	.
16A\	8aa\J
16c\JJ	.
*Xrep	*
=4	=4
16C\LL	16gg\LL
16G\	16ee\JJ
16E\	4cc\
16G\JJ	.
16C\LL	.
16G\	.
16E\	16gg\LL
16C\JJ	16cc\JJ
16F\LL	16aa\LL
16C\	16cc\
16G\	16bb-\
16C\JJ	16cc\JJ
=5	=5
16F\LL	8aa\L
16c\	.
!	!LO:TUP:a:problem=klamra łukowa
16A\	24cc\L
.	24dd\
16c\JJ	.
.	24ee\JJ
*rep	*
16F\LL	8ff\L
16c\	.
!	!LO:TUP:a:problem=klamra łukowa
16A\	24cc\L
.	24dd\
16c\JJ	.
.	24ee\JJ
*Xrep	*
*rep	*
16F\LL	8ff\L
16c\	.
16A\	8aa\J
16c\JJ	.
*Xrep	*
=6	=6
16C\LL	16gg\LL
16G\	16ee\JJ
16E\	4cc\
16G\JJ	.
16C\LL	.
16G\	.
16E\	16gg\LL
16C\JJ	16cc\JJ
16F\LL	16aa\LL
16C\	16cc\
16G\	16bb-\
16C\JJ	16cc\JJ
=7	=7
!	!LO:TX:a:i:t=armaty
16F\LL	4aa\
16c\	.
16A\	.
16c\JJ	.
*rep	*
16F\LL	4r
16c\	.
16A\	.
16c\JJ	.
*Xrep	*
*rep	*
16F\LL	4aa\
16c\	.
16A\	.
16c\JJ	.
*Xrep	*
=8	=8
16E/LL	4bb-\
16c/	.
16G/	.
16c/JJ	.
*rep	*
16E/LL	4r
16c/	.
16G/	.
16c/JJ	.
*Xrep	*
*rep	*
16E/LL	4bb-\
16c/	.
16G/	.
!	!LO:TX:a:t=[ Kurpiński ]
16c/JJ	.
*Xrep	*
!!LO:LB:g=original
=9	=9
!	!LO:TX:a:i:t=Reyterada
16f\LL	16aa\LL
16e\	16gg#X\
16f\	16aa\
16e\JJ	16ggn\JJ
16d\LL	16ff\LL
16c#X\	16ee\
16d\	16ff\
16cn\JJ	16ee\JJ
8.B-\L	8.dd\L
16A\Jk	16cc#X\Jk
=10	=10
16G\LL	16b-\LL
16F#X\	16a\
16G\	16b-\
16F#\JJ	16a\JJ
16G\LL	16b-\LL
16F#\	16a\
16G\	16b-\
16F#\JJ	16a\JJ
8.E\L	8.g/L
16D\Jk	16f/Jk
=11	=11
8C\L	8cc\L
8E\J	32cc\LL
.	32dd\
.	32ee\
.	32ff\JJJ
8G\L	8gg\L
8B-\J	32gg\LL
.	32ff\
.	32ee\
.	32dd\JJJ
8G\L	8cc\L
8E\J	8bb-J 8cc\
=12	=12
4F\	16aa\LL
.	16ff\
.	16ee\
.	16gg\JJ
.	8qgg/
*	*2\right
!LO:TX:a:t=P:problem=mixed beam	!
8c\L	2ff\
8C/J	.
4F\	.
=13:|!|:	=13:|!|:
*>B	*>B
!	!LO:TX:a:i:t=Trębacz
2.r	16cc\LL
.	16ee\
.	16gg\
.	16ccc\JJ
.	8r
.	16gg\LL
.	16ccc\JJ
.	16gg\LL
.	16ccc\
.	16gg\
.	16ccc\JJ
=14	=14
2.r	8gg\
.	4gg\
.	16ee\LL
.	16cc\JJ
.	4gg\
=15	=15
16F#X\LL	4ff#X 4dd 4a/
16d\	.
16A\	.
16c\JJ	.
*rep	*
16F#\LL	8.aa\L
16d\	.
16A\	.
16c\JJ	32gg\LL
.	32ff#X\JJJ
*Xrep	*
*rep	*
16F#\LL	4ryy
16d\	.
16A\	.
16c\JJ	.
*Xrep	*
!!LO:LB:g=original
=16	=16
16G\LL	4gg\
16d\	.
16B-\	.
16d\JJ	.
4G\	8bb-\L
.	8bb- 8dd\
4r	8aa 8cc\
.	8ggJ 8b-X\
=17	=17
!	!LO:TX:a:i:t=podaią się
16E\LL	4ee\
16c\	.
16G\	.
16c\JJ	.
*rep	*
16E\LL	8.gg\L
16c\	.
16G\	.
16c\JJ	32ff\LL
.	32ee\JJJ
*Xrep	*
*rep	*
16E\LL	4ryy
16c\	.
16G\	.
16c\JJ	.
*Xrep	*
=18	=18
16F\LL	4ffT\
16c\	.
16A\	.
16c\JJ	.
4F\	8aa\L
.	8aa 8cc\
4r	8gg 8b-\
.	8ffJ 8a\
=19	=19
16C\LL	16ee\LL
16G\	16gg\JJ
16E\	4cc\
16G\JJ	.
8C\L	.
8E\J	16bb-\LL
.	16cc\JJ
8F\L	16aa\LL
.	16cc\
8E\J	16gg\
.	16cc\JJ
=20	=20
!	!LO:TX:a:i:t=Gonitwa
4F\	8aa\L
.	32f\LL
.	32g\
.	32a\
.	32b-\JJJ
8c\L	8cc\L
8A\J	32a\LL
!	!LO:TX:a:t=c
.	32b-\
!	!LO:TX:a:t=d
.	32cc\
!	!LO:TX:a:t=e
.	32dd\JJJ
16f\LL	16ff\LL
16c\	16cc\
16A\	16a\
16F\JJ	16f\JJ
=21	=21
!	!LO:N:vis=4
2c\	8e/
.	4cc\
.	16bb-\LL
.	16cc\JJ
16C\LL	16aa\LL
16G\	16cc\
16F\	16gg\
16E\JJ	16cc\JJ
=22	=22
4F\	16aa\LL
.	16ff\
.	16ee\
.	16gg\JJ
!LO:TX:a:t=P:problem=mixed beam	!
.	8qgg/
8c\L	2ff\
8C/J	.
4F\	.
==:|!|:	==:|!|:
*-	*-
!!!system-decoration: {s1,s2}
!!!ENC: Marta Lawrence
!!!END: 2020-12-13
!!!ENC: Marcin Jachim
!!!END: 2020-06-18
!!!YEC: Copyright 2022 Narodowy Instytut Fryderyka Chopina (https://polishscores.org)
!!!YEM: License CC-BY-4.0 (https://creativecommons.org/licenses/by/4.0)
